X:78
T:Turks March
R:March
M:2/4
L:1/16
K:G
G2A2 | B2G2 G2AB | c2A2 A2dc | B2GG F2G2 | AGFE D2GA |
B2G2 G2AB | c2AA d2c2 | BAGA D2F2 | G4 :|
 |:B2c2 | d^cde d2ef | e2c2 c3d | edef gfga | f2d2 dedc |
B2G2 G2AB | c2A2 A2Bc | BAGA D2F2 | G4 :|
%%vskip 1.5cm
